;FLAVOR:Marlin
;TIME:308
;Filament used: 0.166522m
;Layer height: 0.175
;MINX:54.941
;MINY:48.075
;MINZ:0.263
;MAXX:65.058
;MAXY:71.925
;MAXZ:5.163
;POSTPROCESSED
;Generated with Cura_SteamEngine 4.12.1
M82 ;absolute extrusion mode
; --- Begin OctoLapse Settings ---
; --- Global Settings
; layer_height = 0.175
; smooth_spiralized_contours = True
; magic_mesh_surface_mode = normal
; machine_extruder_count = 1
; --- Single Extruder Settings
; speed_z_hop = 1.5
; retraction_amount = 2.5
; retraction_hop = 1
; retraction_hop_enabled = False
; retraction_enable = True
; retraction_speed = 40
; retraction_retract_speed = 40
; retraction_prime_speed = 40
; speed_travel = 120
; --- End OctoLapse Settings ---
M140 S85
M105
M190 S85
M104 S230.0
M105
M109 S230.0
M190 S85
G21;(metric values)
G90;(absolute positioning)
M82;(set extruder to absolute mode)
G28;(Home the printer)
G92 E0;(Reset the extruder to 0)
G0 Z5 E5 F500;(Move up and prime the nozzle)
G0 X-1 Z0;(Move outside the printable area)
G1 Y60 E8 F500;(Draw a priming/wiping line to the rear)
G1 X-1;(Move a little closer to the print area)
G1 Y10 E16 F500;(draw more priming/wiping)
G1 E15 F250;(Small retract)
G92 E0;(Zero the extruder)
G92 E0
G92 E0
G1 F2400 E-2.5
;LAYER_COUNT:29
;LAYER:0
M107
G0 F4320 X55.387 Y48.763 Z0.263
;TYPE:SKIRT
G1 F2400 E0
G1 F1800 X55.668 Y48.49 E0.01499
G1 X55.999 Y48.279 E0.03002
G1 X56.365 Y48.14 E0.045
G1 X56.862 Y48.075 E0.06418
G1 X61.95 Y48.075 E0.2589
G1 X62.34 Y48.115 E0.2739
G1 X62.714 Y48.233 E0.28891
G1 X63.056 Y48.424 E0.3039
G1 X63.352 Y48.681 E0.3189
G1 X63.59 Y48.992 E0.33389
G1 X63.76 Y49.345 E0.34888
G1 X63.841 Y49.639 E0.36056
G1 X64.673 Y54 E0.53046
G1 X64.703 Y54.24 E0.53972
G1 X65.058 Y59.878 E0.75591
G1 X65.058 Y60.12 E0.76517
G1 X64.703 Y65.76 E0.98144
G1 X64.673 Y66 E0.9907
G1 X63.841 Y70.361 E1.1606
G1 X63.729 Y70.736 E1.17558
G1 X63.543 Y71.081 E1.19058
G1 X63.291 Y71.381 E1.20557
G1 X62.983 Y71.624 E1.22059
G1 X62.633 Y71.8 E1.23558
G1 X62.254 Y71.901 E1.25059
G1 X61.95 Y71.925 E1.26226
G1 X56.862 Y71.925 E1.45698
G1 X56.472 Y71.885 E1.47198
G1 X56.098 Y71.767 E1.48699
G1 X55.756 Y71.576 E1.50198
G1 X55.46 Y71.319 E1.51698
G1 X55.222 Y71.008 E1.53197
G1 X55.052 Y70.655 E1.54697
G1 X54.957 Y70.275 E1.56196
G1 X54.941 Y69.883 E1.57697
G1 X54.988 Y69.588 E1.5884
G1 X55.908 Y64.767 E1.77623
G1 X56.208 Y59.999 E1.95906
G1 X55.908 Y55.233 E2.14182
G1 X54.988 Y50.412 E2.32965
G1 X54.944 Y49.834 E2.35183
G1 X55.017 Y49.449 E2.36683
G1 X55.051 Y49.367 E2.37022
G0 F1620 X55.167 Y49.087
G0 X55.387 Y48.763
G0 F4320 X55.771 Y48.864
G1 F1800 X56.053 Y48.649 E2.3838
G1 X56.375 Y48.502 E2.39734
G1 X56.862 Y48.425 E2.41621
G1 X61.95 Y48.425 E2.61093
G1 X62.302 Y48.465 E2.62449
G1 X62.636 Y48.582 E2.63803
G1 X62.936 Y48.772 E2.65162
G1 X63.186 Y49.023 E2.66518
G1 X63.373 Y49.324 E2.67874
G1 X63.497 Y49.705 E2.69407
G1 X64.329 Y54.066 E2.86398
G1 X64.354 Y54.262 E2.87154
G1 X64.709 Y59.9 E3.08773
G1 X64.709 Y60.098 E3.09531
G1 X64.354 Y65.738 E3.31158
G1 X64.329 Y65.934 E3.31914
G1 X63.497 Y70.295 E3.48905
G1 X63.392 Y70.634 E3.50263
G1 X63.214 Y70.94 E3.51618
G1 X62.972 Y71.199 E3.52974
G1 X62.678 Y71.397 E3.54331
G1 X62.347 Y71.524 E3.55687
G1 X61.95 Y71.575 E3.57219
G1 X56.862 Y71.575 E3.76691
G1 X56.51 Y71.535 E3.78047
G1 X56.176 Y71.418 E3.79401
G1 X55.876 Y71.228 E3.8076
G1 X55.626 Y70.977 E3.82116
G1 X55.439 Y70.676 E3.83472
G1 X55.324 Y70.34 E3.84831
G1 X55.287 Y69.988 E3.86186
G1 X55.332 Y69.654 E3.87475
G1 X56.255 Y64.816 E4.06324
G1 X56.559 Y59.999 E4.24796
G1 X56.255 Y55.184 E4.43259
G1 X55.332 Y50.346 E4.62108
G1 X55.294 Y50.151 E4.62868
G1 X55.3 Y49.797 E4.64223
G1 X55.385 Y49.453 E4.6558
G1 X55.392 Y49.44 E4.65636
G0 F1620 X55.545 Y49.137
G0 X55.771 Y48.864
G0 F4320 X55.926 Y49.21
G1 F1800 X56.156 Y48.999 E4.66831
G1 X56.433 Y48.853 E4.68029
G1 X56.862 Y48.775 E4.69698
G1 X61.95 Y48.775 E4.89169
G1 X62.26 Y48.815 E4.90365
G1 X62.55 Y48.932 E4.91562
G1 X62.8 Y49.118 E4.92755
G1 X62.996 Y49.362 E4.93952
G1 X63.153 Y49.77 E4.95626
G1 X63.985 Y54.131 E5.12616
G1 X64.005 Y54.284 E5.13207
G1 X64.36 Y59.922 E5.34826
G1 X64.36 Y60.076 E5.35415
G1 X64.005 Y65.716 E5.57042
G1 X63.985 Y65.869 E5.57633
G1 X63.153 Y70.23 E5.74623
G1 X63.056 Y70.526 E5.75815
G1 X62.887 Y70.789 E5.77012
G1 X62.657 Y71 E5.78206
G1 X62.381 Y71.147 E5.79403
G1 X61.95 Y71.225 E5.81079
G1 X56.862 Y71.225 E6.00551
G1 X56.552 Y71.185 E6.01747
G1 X56.262 Y71.068 E6.02944
G1 X56.012 Y70.882 E6.04136
G1 X55.816 Y70.638 E6.05334
G1 X55.689 Y70.353 E6.06528
G1 X55.638 Y70.045 E6.07723
G1 X55.676 Y69.719 E6.08979
G1 X56.603 Y64.863 E6.27898
G1 X56.909 Y59.999 E6.4655
G1 X56.603 Y55.137 E6.65193
G1 X55.676 Y50.281 E6.84113
G1 X55.64 Y50.081 E6.84891
G1 X55.655 Y49.84 E6.85815
G0 F1620 X55.659 Y49.769
G0 X55.757 Y49.472
G0 X55.926 Y49.21
G0 F4320 X56.133 Y49.516
G1 F1800 X56.311 Y49.321 E6.86825
G1 X56.538 Y49.187 E6.87834
G1 X56.862 Y49.125 E6.89096
G1 X61.95 Y49.125 E7.08568
G1 X62.211 Y49.165 E7.09579
G1 X62.448 Y49.28 E7.10587
G1 X62.64 Y49.462 E7.11599
G1 X62.809 Y49.836 E7.1317
G1 X63.641 Y54.197 E7.3016
G1 X63.655 Y54.306 E7.30581
G1 X64.01 Y59.944 E7.522
G1 X64.01 Y60.054 E7.52621
G1 X63.655 Y65.694 E7.74248
G1 X63.641 Y65.803 E7.74669
G1 X62.809 Y70.164 E7.91659
G1 X62.722 Y70.413 E7.92669
G1 X62.563 Y70.624 E7.9368
G1 X62.35 Y70.778 E7.94686
G1 X61.95 Y70.875 E7.96261
G1 X56.862 Y70.875 E8.15733
G1 X56.601 Y70.835 E8.16743
G1 X56.364 Y70.72 E8.17751
G1 X56.172 Y70.538 E8.18764
G1 X56.043 Y70.308 E8.19773
G1 X55.988 Y70.05 E8.20782
G1 X56.02 Y69.785 E8.21804
G1 X56.951 Y64.904 E8.4082
G1 X57.261 Y59.999 E8.59629
G1 X56.951 Y55.096 E8.7843
G1 X56.021 Y50.215 E8.97446
G1 X56.015 Y50.182 E8.97574
G0 F1620 X55.987 Y50.017
G0 X56.022 Y49.755
G0 X56.133 Y49.516
G0 F4320 X56.516 Y49.605
G1 F1800 X56.693 Y49.503 E8.98356
G1 X56.862 Y49.475 E8.99012
G1 X61.95 Y49.475 E9.18483
G1 X62.15 Y49.515 E9.19264
G1 X62.32 Y49.627 E9.20043
G1 X62.466 Y49.902 E9.21235
G1 X63.298 Y54.263 E9.38225
G1 X63.306 Y54.328 E9.38476
G1 X63.661 Y59.966 E9.60095
G1 X63.661 Y60.032 E9.60348
G1 X63.306 Y65.672 E9.81975
G1 X63.298 Y65.737 E9.82225
G1 X62.466 Y70.098 E9.99216
G1 X62.389 Y70.287 E9.99997
G1 X62.247 Y70.433 E10.00776
G1 X61.95 Y70.525 E10.01966
G1 X56.862 Y70.525 E10.21438
G1 X56.662 Y70.485 E10.22218
G1 X56.492 Y70.373 E10.22998
G1 X56.378 Y70.203 E10.23781
G1 X56.337 Y70.004 E10.24558
G1 X56.369 Y69.818 E10.25281
G1 X57.299 Y64.945 E10.44266
G1 X57.611 Y59.999 E10.63232
G1 X57.299 Y55.055 E10.82191
G1 X56.381 Y50.246 E11.00927
G0 F1620 X56.369 Y50.182
G0 X56.338 Y49.964
G0 X56.392 Y49.767
G0 X56.516 Y49.605
G0 F4320 X56.773 Y49.849
G1 F1800 X56.862 Y49.825 E11.0128
G1 X61.95 Y49.825 E11.20751
G1 X62.06 Y49.864 E11.21198
G1 X62.122 Y49.967 E11.21658
G1 X62.957 Y54.35 E11.38733
G1 X63.312 Y60.01 E11.60437
G1 X62.957 Y65.65 E11.82064
G1 X62.122 Y70.033 E11.99139
G1 X62.063 Y70.134 E11.99587
G1 X61.95 Y70.175 E12.00047
G1 X56.862 Y70.175 E12.19519
G1 X56.752 Y70.136 E12.19965
G1 X56.691 Y70.037 E12.2041
G1 X56.709 Y69.907 E12.20913
G1 X57.647 Y64.992 E12.40062
G1 X57.961 Y59.999 E12.59208
G1 X57.647 Y55.008 E12.78346
G1 X56.788 Y50.508 E12.95878
G0 F1620 X56.709 Y50.093
G0 X56.698 Y49.939
G0 X56.773 Y49.849
G1 F2400 E10.45878
;MESH:ocf-gel-testfit.stl
G0 F4320 X57.339 Y50.387
G0 X58.291 Y54.913
G1 F2400 E12.95878
G0 F4320 X58.02 Y54.962
;TYPE:WALL-OUTER
G1 F1800 X57.112 Y50.2 E13.14431
G1 X61.785 Y50.2 E13.32314
G1 X62.582 Y54.378 E13.48592
G1 X62.936 Y60 E13.7015
G1 X62.582 Y65.622 E13.91708
G1 X61.785 Y69.8 E14.07985
G1 X57.112 Y69.8 E14.25869
G1 X58.02 Y65.038 E14.44421
G1 X58.337 Y60 E14.6374
G1 X58.063 Y55.654 E14.80405
G0 F1620 X58.02 Y54.962
G0 F4320 X57.983 Y54.766
G0 X58.343 Y54.921
;TYPE:WALL-INNER
G1 F1800 X57.505 Y50.525 E14.97531
G1 X61.516 Y50.525 E15.12882
G1 X62.259 Y54.42 E15.28056
G1 X62.611 Y60 E15.49454
G1 X62.259 Y65.58 E15.70851
G1 X61.516 Y69.475 E15.86026
G1 X57.505 Y69.475 E16.01376
G1 X58.343 Y65.079 E16.18502
G1 X58.663 Y60 E16.37978
G1 X58.386 Y55.613 E16.548
G0 F1620 X58.343 Y54.921
G0 F4320 X58.691 Y54.877
G1 F1800 X57.928 Y50.875 E16.70392
G1 X61.226 Y50.875 E16.83013
G1 X61.912 Y54.469 E16.97016
G1 X62.261 Y60 E17.18225
G1 X61.912 Y65.531 E17.39434
G1 X61.226 Y69.125 E17.53437
G1 X57.928 Y69.125 E17.66058
G1 X58.691 Y65.123 E17.8165
G1 X59.014 Y60 E18.01294
G1 X58.734 Y55.569 E18.18285
G0 F1620 X58.691 Y54.877
G0 F4320 X59.029 Y54.834
;TYPE:SKIN
G1 F1800 X58.339 Y51.215 E18.32385
G1 X60.945 Y51.215 E18.42358
G1 X61.573 Y54.507 E18.55184
G1 X61.919 Y60 E18.76247
G1 X61.573 Y65.493 E18.9731
G1 X60.945 Y68.785 E19.10136
G1 X58.339 Y68.785 E19.20109
G1 X59.029 Y65.166 E19.34209
G1 X59.354 Y60 E19.54018
G1 X59.072 Y55.526 E19.71174
G0 F1620 X59.029 Y54.834
G0 F4320 X58.776 Y54.866
G0 X58.122 Y51.035
G0 X60.281 Y50.96
G0 X60.281 Y51.372
G1 F1800 X60.94 Y52.031 E19.7474
G0 F4320 X61.057 Y52.642
G1 F1800 X59.786 Y51.372 E19.81617
G0 F4320 X59.291 Y51.372
G1 F1800 X61.174 Y53.255 E19.91808
G0 F4320 X61.291 Y53.866
G1 F1800 X58.796 Y51.372 E20.05308
G0 F4320 X58.58 Y51.651
G1 F1800 X61.407 Y54.478 E20.20609
G0 F4320 X61.447 Y55.012
G1 F1800 X58.697 Y52.262 E20.35492
G0 F4320 X58.814 Y52.874
G1 F1800 X61.48 Y55.541 E20.49924
G0 F4320 X61.514 Y56.069
G1 F1800 X58.93 Y53.486 E20.63906
G0 F4320 X59.047 Y54.097
G1 F1800 X61.547 Y56.597 E20.77437
G0 F4320 X61.58 Y57.125
G1 F1800 X59.164 Y54.709 E20.90513
G0 F4320 X59.211 Y55.251
G1 F1800 X61.613 Y57.653 E21.03513
G0 F4320 X61.646 Y58.182
G1 F1800 X59.244 Y55.78 E21.16513
G0 F4320 X59.278 Y56.308
G1 F1800 X61.68 Y58.71 E21.29513
G0 F4320 X61.713 Y59.238
G1 F1800 X59.311 Y56.836 E21.42513
G0 F4320 X59.344 Y57.364
G1 F1800 X61.746 Y59.766 E21.55513
G0 F4320 X61.744 Y60.259
G1 F1800 X59.377 Y57.892 E21.68324
G0 F4320 X59.411 Y58.421
G1 F1800 X61.715 Y60.725 E21.80793
G0 F4320 X61.686 Y61.191
G1 F1800 X59.444 Y58.949 E21.92927
G0 F4320 X59.477 Y59.477
G1 F1800 X61.656 Y61.656 E22.04721
G0 F4320 X61.627 Y62.122
G1 F1800 X59.51 Y60.005 E22.16178
G0 F4320 X59.481 Y60.471
G1 F1800 X61.598 Y62.588 E22.27636
G0 F4320 X61.569 Y63.054
G1 F1800 X59.451 Y60.936 E22.39099
G0 F4320 X59.422 Y61.402
G1 F1800 X61.54 Y63.52 E22.50562
G0 F4320 X61.511 Y63.986
G1 F1800 X59.392 Y61.867 E22.6203
G0 F4320 X59.363 Y62.333
G1 F1800 X61.481 Y64.451 E22.73493
G0 F4320 X61.452 Y64.917
G1 F1800 X59.334 Y62.798 E22.84959
G0 F4320 X59.305 Y63.264
G1 F1800 X61.423 Y65.383 E22.96425
G0 F4320 X61.353 Y65.808
M104 S230
G1 F1800 X59.276 Y63.73 E23.07668
G0 F4320 X59.246 Y64.196
G1 F1800 X61.274 Y66.224 E23.18644
G0 F4320 X61.195 Y66.639
G1 F1800 X59.217 Y64.662 E23.29347
G0 F4320 X59.187 Y65.127
G1 F1800 X61.115 Y67.055 E23.39782
G0 F4320 X61.036 Y67.471
G1 F1800 X59.114 Y65.549 E23.50184
G0 F4320 X59.035 Y65.965
G1 F1800 X60.957 Y67.887 E23.60586
G0 F4320 X60.877 Y68.302
G1 F1800 X58.956 Y66.381 E23.70983
G0 F4320 X58.877 Y66.796
G1 F1800 X60.707 Y68.627 E23.8089
G0 F4320 X60.212 Y68.627
G1 F1800 X58.798 Y67.212 E23.88545
G0 F4320 X58.718 Y67.628
G1 F1800 X59.717 Y68.627 E23.93952
G0 F4320 X59.223 Y68.627
G1 F1800 X58.639 Y68.044 E23.9711
G0 F4320 X58.56 Y68.459
G1 F1800 X58.728 Y68.627 E23.98019
G0 F4320 X58.728 Y69.275
;MESH:NONMESH
G0 F90 X58.728 Y69.275 Z0.438
G0 F4320 X58.29 Y68.103
G0 X58.691 Y54.877
;TIME_ELAPSED:50.861594
;LAYER:1
M106 S255
;TYPE:WALL-INNER
;MESH:ocf-gel-testfit.stl
G1 F2400 X57.928 Y50.875 E24.08394
G1 X61.226 Y50.875 E24.16792
G1 X61.912 Y54.469 E24.2611
G1 X62.261 Y60 E24.40222
G1 X61.912 Y65.531 E24.54335
G1 X61.226 Y69.125 E24.63652
G1 X57.928 Y69.125 E24.7205
G1 X58.691 Y65.123 E24.82425
G1 X59.014 Y60 E24.95496
G1 X58.756 Y55.916 E25.05917
G0 F2160 X58.691 Y54.877
G0 F5760 X58.343 Y54.921
G1 F2400 X57.505 Y50.525 E25.17313
G1 X61.516 Y50.525 E25.27527
G1 X62.259 Y54.42 E25.37624
G1 X62.611 Y60 E25.51862
G1 X62.259 Y65.58 E25.66099
G1 X61.516 Y69.475 E25.76197
G1 X57.505 Y69.475 E25.86411
G1 X58.343 Y65.079 E25.97807
G1 X58.663 Y60 E26.10766
G1 X58.408 Y55.96 E26.21074
G0 F2160 X58.343 Y54.921
G0 F5760 X58.02 Y54.962
;TYPE:WALL-OUTER
G1 F2025 X57.112 Y50.2 E26.33419
G1 X61.785 Y50.2 E26.45319
G1 X62.582 Y54.378 E26.5615
G1 X62.936 Y60 E26.70494
G1 X62.582 Y65.622 E26.84839
G1 X61.785 Y69.8 E26.9567
G1 X57.112 Y69.8 E27.0757
G1 X58.02 Y65.038 E27.19914
G1 X58.337 Y60 E27.32769
G1 X58.085 Y56.002 E27.4297
G0 F1822.5 X58.02 Y54.962
G0 F5760 X57.983 Y54.766
G0 X58.253 Y54.716
G0 X59.029 Y54.834
;TYPE:SKIN
G1 F1500 X58.339 Y51.215 E27.52352
G1 X60.945 Y51.215 E27.58988
G1 X61.573 Y54.507 E27.67522
G1 X61.919 Y60 E27.81538
G1 X61.573 Y65.493 E27.95553
G1 X60.945 Y68.785 E28.04087
G1 X58.339 Y68.785 E28.10723
G1 X59.029 Y65.166 E28.20105
G1 X59.354 Y60 E28.33286
G1 X59.094 Y55.873 E28.43816
G0 F1350 X59.029 Y54.834
G0 F5760 X58.776 Y54.866
G0 X58.201 Y51.85
G0 X58.605 Y51.774
G1 F1500 X59.007 Y51.372 E28.45264
G0 F5760 X59.502 Y51.372
G1 F1500 X58.684 Y52.19 E28.4821
G0 F5760 X58.763 Y52.605
G1 F1500 X59.997 Y51.372 E28.52652
G0 F5760 X60.492 Y51.372
G1 F1500 X58.842 Y53.021 E28.58592
G0 F5760 X58.922 Y53.436
G1 F1500 X60.842 Y51.516 E28.65507
G0 F5760 X60.921 Y51.932
G1 F1500 X59.001 Y53.852 E28.72421
G0 F5760 X59.08 Y54.268
G1 F1500 X61 Y52.348 E28.79336
G0 F5760 X61.079 Y52.764
G1 F1500 X59.16 Y54.684 E28.86248
G0 F5760 X59.204 Y55.134
G1 F1500 X61.159 Y53.18 E28.93287
G0 F5760 X61.238 Y53.595
G1 F1500 X59.234 Y55.599 E29.00504
G0 F5760 X59.263 Y56.065
G1 F1500 X61.318 Y54.01 E29.07905
G0 F5760 X61.397 Y54.426
G1 F1500 X59.293 Y56.531 E29.15483
G0 F5760 X59.322 Y56.997
G1 F1500 X61.438 Y54.88 E29.23105
G0 F5760 X61.468 Y55.345
G1 F1500 X59.351 Y57.462 E29.30729
G0 F5760 X59.38 Y57.928
G1 F1500 X61.497 Y55.811 E29.38353
G0 F5760 X61.526 Y56.277
G1 F1500 X59.41 Y58.393 E29.45974
G0 F5760 X59.439 Y58.859
G1 F1500 X61.555 Y56.743 E29.53594
G0 F5760 X61.584 Y57.209
G1 F1500 X59.469 Y59.324 E29.6121
G0 F5760 X59.498 Y59.79
G1 F1500 X61.614 Y57.674 E29.68831
G0 F5760 X61.643 Y58.14
G1 F1500 X59.492 Y60.291 E29.76577
G0 F5760 X59.459 Y60.818
G1 F1500 X61.672 Y58.606 E29.84545
G0 F5760 X61.702 Y59.071
G1 F1500 X59.426 Y61.347 E29.92741
G0 F5760 X59.393 Y61.875
G1 F1500 X61.731 Y59.537 E30.01161
G0 F5760 X61.76 Y60.003
G1 F1500 X59.36 Y62.403 E30.09804
G0 F5760 X59.326 Y62.931
G1 F1500 X61.726 Y60.531 E30.18447
G0 F5760 X61.693 Y61.06
G1 F1500 X59.293 Y63.46 E30.2709
G0 F5760 X59.26 Y63.988
G1 F1500 X61.661 Y61.587 E30.35737
G0 F5760 X61.627 Y62.115
G1 F1500 X59.227 Y64.516 E30.44382
G0 F5760 X59.194 Y65.044
G1 F1500 X61.594 Y62.644 E30.53025
G0 F5760 X61.561 Y63.172
G1 F1500 X59.099 Y65.634 E30.61891
G0 F5760 X58.982 Y66.246
G1 F1500 X61.528 Y63.7 E30.7106
G0 F5760 X61.494 Y64.228
G1 F1500 X58.865 Y66.857 E30.80528
G0 F5760 X58.749 Y67.468
G1 F1500 X61.461 Y64.756 E30.90294
G0 F5760 X61.428 Y65.285
G1 F1500 X58.633 Y68.08 E31.0036
G0 F5760 X58.58 Y68.627
G1 F1500 X61.342 Y65.866 E31.10305
G0 F5760 X61.225 Y66.477
G1 F1500 X59.075 Y68.627 E31.18047
G0 F5760 X59.57 Y68.627
G1 F1500 X61.108 Y67.089 E31.23586
G0 F5760 X60.992 Y67.701
G1 F1500 X60.065 Y68.627 E31.26923
G0 F5760 X60.56 Y68.627
G1 F1500 X60.874 Y68.313 E31.28053
G0 F5760 X61.512 Y68.435
;MESH:NONMESH
G0 F90 X61.512 Y68.435 Z0.613
G0 F5760 X58.122 Y68.965
G0 X58.355 Y65.323
G0 X58.691 Y54.877
;TIME_ELAPSED:63.323435
;LAYER:2
;TYPE:WALL-INNER
;MESH:ocf-gel-testfit.stl
G1 F3000 X57.928 Y50.875 E31.38428
G1 X61.226 Y50.875 E31.46826
G1 X61.912 Y54.469 E31.56144
G1 X62.261 Y60 E31.70256
G1 X61.912 Y65.531 E31.84369
G1 X61.226 Y69.125 E31.93686
G1 X57.928 Y69.125 E32.02084
G1 X58.691 Y65.123 E32.12459
G1 X59.014 Y60 E32.2553
G1 X58.756 Y55.916 E32.35951
G0 F2700 X58.691 Y54.877
G0 F7200 X58.343 Y54.921
G1 F3000 X57.505 Y50.525 E32.47347
G1 X61.516 Y50.525 E32.57561
G1 X62.259 Y54.42 E32.67658
G1 X62.611 Y60 E32.81896
G1 X62.259 Y65.58 E32.96133
G1 X61.516 Y69.475 E33.06231
G1 X57.505 Y69.475 E33.16445
G1 X58.343 Y65.079 E33.27841
G1 X58.663 Y60 E33.408
G1 X58.408 Y55.96 E33.51108
G0 F2700 X58.343 Y54.921
G0 F7200 X58.02 Y54.962
;TYPE:WALL-OUTER
G1 F2250 X57.112 Y50.2 E33.63453
G1 X61.785 Y50.2 E33.75353
G1 X62.582 Y54.378 E33.86184
